X:40
T:SHAMBUY2- Pot Stick
S:Kidson's 'Old English Dances'
Q:1/4=40
L:1/8
M:6/8
K:D
D2 A AFA|B/c/dF E2D|D2 A AFA|B3d3:|\
d/e/fd ecA|B/cdF E2D|d/e/fd ecA|B3d3|\
d/c/fd ecA|B/c/dF E2D|DFA AFA|B3d3:|]

